X:263
T:Amboyna. (p)1687.PLFD1.263
M:4/4
L:1/8
Q:1/2=100
S:Playford, Dancing Master,7th Ed,1st Supp,1687.
O:England;London
H:1687.
Z:Chris Partington
K:Bb
b3g (fe)(de)|f4B2f2|b3a gab2|a6|gf|
b3a (gf)(ed)|e2f2g2(ab)|(gf)(ed)c3B|1B8:|2B6|
|:AB|c3d(cB)A2|B2G2d3g|f2d2b2c'2|a4g2a2|
f3e dcd2|c3B AGg2|f3e (dc)(de)|1c4B2:|2c4B4|]
